X:19
T:The Old Schoolhouse
C:Michael Grey
B:William Livingstone Volume 1
H:
O:Kevin Fraser
Z:Kevin Fraser
Q:1/4=120
K:HP
M:C
L:1/8
R:Strathspey
U: R = ///
U: r = //
U: V = !accent!
V:M gstem=up stem=down name="Melody" sname="Melody" 
V:H gstem=up stem=down name="Harmony" sname="Harmony"
V:C gstem=up stem=down name="C-Harmony" sname="C-Harmony"
V:S gstem=up stem=down clef=none dyn=up name="Snare" sname="Snare"
V:B gstem=up stem=down clef=none dyn=up name="Bass" sname="Bass"
V:T gstem=up stem=down clef=none dyn=up name="Tenor" sname="Tenor"
V:BB gstem=up stem=down name="Brass Bass" sname="Bass" transpose=-1  octave=-2 clef=bass
V:BC gstem=up stem=down name="Brass Chord" sname="ABCD-D" transpose=-1
V:BD gstem=up stem=down name="Brass Chord 2" sname="ABCD-B" transpose=-1
V:P gstem=up stem=down name="Piano" sname="Piano" transpose=0 octave=-1
I:MIDI=program 110
%%MIDI gracedivider 40
% %score {M BC BD BB}
% %MIDI program 109 #bagpipes
%%MIDI vol 100
[V:M]  a [| {fg}f>B {gBGdG}B2 {Gdc}d>B {gfg}f>d | {gef}e>A {gAGAG}A2 {gcd}c<{e}A {gef}e>c | {gfg}f>B {gBGdG}B2 {Gdc}d>B {gfg}f>d | {gcd}c>{e}A {gef}e>c {g}B2 {GdGe}B>a | 
[V:M]     | {fg}f>B {gBGdG}B2 {Gdc}d>B {gfg}f>d | {gef}e>A {gAGAG}A2 {gcd}c<{e}A {gef}e>c | {gfg}f>B {gBGdG}B2 (3agf {gef}e>d | {gcd}c>{e}A {gef}e>c {g}B2 {GdGe}B>c |] 
[V:M]   [| {Gdc}d>B {gfg}f>B {Gdc}d>B {gfg}f>d|{gcd}c<{e}A (3{g}edc (3agf {gef}e>d  |{Gdc}d>B {gfg}f>B {Gdc}d>B {gfg}f>d | {gcd}c<{e}A {gef}e>c {g}B2 {GdGe}B>c | 
[V:M]     | {Gdc}d>B {gfg}f>B {Gdc}d>B {gfg}f>d|{gcd}c<{e}A (3{g}edc (3agf {gef}e>c  | {Gdc}d>e {gfg}f>d (3agf {gef}e>d | {gcd}c<{e}A {gef}e>c {g}B2 {GdGe}B>c | 
[V:M]   [| {g}B2 {GdGe}B>A {gBd}B<{e}A {gfg}f>e | {gAGAG}A2 {gBd}B<{e}A {gcd}c<{e}A {GdG}e>c  | {g}B2 {GdGe}B>A {gBd}B<{e}A {gfg}f>d |{gcd}c<{e}A {gef}e>c {g}B2 {GdGe}B>c | 
[V:M]     {g}B2 {GdGe}B>A {gBd}B<{e}A {gfg}f>e | {gAGAG}A2 {gBd}B<{e}A {gcd}c<{e}A {GdG}e>c  | {gfg}f>B {gBGdG}B2 (3agf {gef}e>d | {gcd}c>{e}A {gef}e>c {g}B2 {GdGe}B>c|] 
[V:M]   [| {Gdc}d>a {fg}f>d {ag}a>f {Gdc}d>f | {gef}e>A {gAGAG}A2 (3agf {gef}e>c |   {Gdc}d>a {fg}f>d {ag}a>f {Gdc}d>f |{gcd}c<{e}A {gef}e>c {g}B2 {GdGe}B>c | 
[V:M]     {Gdc}d>a {fg}f>d {ag}a>f {Gdc}d>f | {gef}e>A {gAGAG}A2 (3agf {gef}e>c | (3{g}dcB {gfg}f>d (3agf {gef}e>d | {gcd}c>{e}A {gef}e>c {g}B2 {GdGe}B|] 

